svgs/sharp-solid/square-r.svg

<svg xmlns="http://www.w3.org/2000/svg" viewBox="0 0 448 512"><!--! Font Awesome Pro 6.6.0 by @fontawesome - https://fontawesome.com License - https://fontawesome.com/license (Commercial License) Copyright 2024 Fonticons, Inc. --><path d="M448 32L0 32 0 480l448 0 0-448zM128 128l24 0 104 0c44.2 0 80 35.8 80 80l0 24-3.7 0c-8.4 26.7-30.4 47.4-57.9 53.9L337.1 384l-57 0-61.3-96L176 288l0 72 0 24-48 0 0-24 0-96 0-112 0-24zm48 112l56 0 24 0c17.7 0 32-14.3 32-32s-14.3-32-32-32l-80 0 0 64z"/></svg>

<svg xmlns="http://www.w3.org/2000/svg" viewBox="0 0 448 512"><!--! Font Awesome Pro 6.5.2 by @fontawesome - https://fontawesome.com License - https://fontawesome.com/license (Commercial License) Copyright 2024 Fonticons, Inc. --><path d="M448 32H0V480H448V32zM128 128h24H256c44.2 0 80 35.8 80 80c0 37.8-26.3 69.5-61.6 77.9L337.1 384h-57l-61.3-96H176v72 24H128V360 264 152 128zm48 112h56 24c17.7 0 32-14.3 32-32s-14.3-32-32-32H176v64z"/></svg>
